functions/app/src/@static/media/stackOverflow.svg

<?xml version="1.0" encoding="UTF-8"?>
<svg  viewBox="0 0 38 48" version="1.1" xmlns="http://www.w3.org/2000/svg" xmlns:xlink="http://www.w3.org/1999/xlink">
    <!-- Generator: Sketch 49.2 (51160) - http://www.bohemiancoding.com/sketch -->
    <title>stackoverflow</title>
    <desc>Created with Sketch.</desc>
    <defs></defs>
    <g id="Page-1" stroke="none" stroke-width="1" fill="none" fill-rule="evenodd">
        <g id="Social-Icons---Isolated" transform="translate(-505.000000, -1175.000000)">
            <g id="stackoverflow" transform="translate(505.000000, 1175.000000)">
                <path d="M25.0860128,41.5922927 L5.97459514,41.6011499 L5.97294973,37.5538824 L25.0835447,37.5440929 L25.0860128,41.5922927 L25.0860128,41.5922927 Z M38,18.6708298 L34.7306912,0 L30.7087256,0.692025863 L33.9775643,19.3628557 L38,18.6708298 L38,18.6708298 Z M25.5455518,32.3547147 L6.51569942,30.616026 L6.14101644,34.6470941 L25.1712214,36.3841513 L25.5455518,32.3547147 L25.5455518,32.3547147 Z M26.8009984,27.0731519 L8.34598112,22.1539179 L7.28563299,26.0621508 L25.7419431,30.9819676 L26.8009984,27.0731519 L26.8009984,27.0731519 Z M29.2103463,22.4436411 L12.7494464,12.8164635 L10.6748215,16.3015328 L27.1365441,25.9292931 L29.2103463,22.4436411 L29.2103463,22.4436411 Z M33.2466504,19.6088756 L22.4792159,3.95170309 L19.106599,6.23184556 L29.8745036,21.8883189 L33.2466504,19.6088756 L33.2466504,19.6088756 Z" fill="#FF810F"></path>
                <polygon id="stackoverflow-icon-path" fill="#BEBCBC" points="28.3315807 28.2784283 28.3315807 44.8243495 3.2648427 44.8243495 3.2648427 28.2784283 0 28.2784283 0 48 31.5799693 48 31.5799693 28.2784283"></polygon>
            </g>
        </g>
    </g>
</svg>

<?xml version="1.0" encoding="UTF-8"?>
<svg version="1.1" viewBox="0 0 38 48" xmlns="http://www.w3.org/2000/svg">
  <title>stackoverflow</title>
  <desc>Created with Sketch.</desc>
  <g fill="none" fill-rule="evenodd">
    <g transform="translate(-505 -1175)">
      <g transform="translate(505 1175)">
        <path
          d="m25.086 41.592-19.111 0.0088572-0.0016454-4.0473 19.111-0.0097895 0.0024681 4.0482zm12.914-22.921-3.2693-18.671-4.022 0.69203 3.2688 18.671 4.0224-0.69203zm-12.454 13.684-19.03-1.7387-0.37468 4.0311 19.03 1.7371 0.37433-4.0294zm1.2554-5.2816-18.455-4.9192-1.0603 3.9082 18.456 4.9198 1.0591-3.9088zm2.4093-4.6295-16.461-9.6272-2.0746 3.4851 16.462 9.6278 2.0738-3.4857zm4.0363-2.8348-10.767-15.657-3.3726 2.2801 10.768 15.656 3.3721-2.2794z"
          fill="#FF810F" />
        <polygon points="28.332 28.278 28.332 44.824 3.2648 44.824 3.2648 28.278 0 28.278 0 48 31.58 48 31.58 28.278"
          fill="#BEBCBC" />
      </g>
    </g>
  </g>
</svg>
